Suru++-Ubuntu/apps/symbolic/feedindicator-symbolic.svg

<svg width="16" height="16" version="1.1" xmlns="http://www.w3.org/2000/svg">
 <path d="m8 0.50000025c-4.1365835 0-7.5 3.3634166-7.5 7.5 0 4.1365838 3.3634165 7.4999998 7.5 7.4999998 4.136583 0 7.500001-3.363417 7.500001-7.4999998 0-4.1365832-3.363418-7.4999998-7.500001-7.5zm0 0.93750005c3.629921 2e-7 6.562501 2.9325792 6.562501 6.5624999 0 3.6299208-2.93258 6.5624998-6.562501 6.5624998-3.6299209 0-6.5625-2.932579-6.5625-6.5624998 0-3.6299209 2.9325791-6.5624999 6.5625-6.5624999z" style="fill:#808080"/>
 <path d="m8 2.2578128c-3.1657705 0-5.7421876 2.576417-5.7421876 5.7421874 0 3.1657708 2.5764171 5.7421878 5.7421876 5.7421878 3.165771-1e-6 5.742188-2.576418 5.742188-5.7421878 0-3.1657702-2.576417-5.7421872-5.742188-5.7421874zm0 0.9375c2.659108 2e-7 4.804688 2.1455797 4.804688 4.8046874 0 2.6591078-2.14558 4.8046868-4.804688 4.8046878-2.6591079 0-4.8046876-2.14558-4.8046876-4.8046878s2.1455797-4.8046874 4.8046876-4.8046874z" style="fill:#808080"/>
 <path d="m11.443723 8.0854643a3.4438774 3.4438774 0 0 1-3.4438782 3.4438777 3.4438774 3.4438774 0 0 1-3.4438775-3.4438777 3.4438774 3.4438774 0 0 1 3.4438775-3.4438775 3.4438774 3.4438774 0 0 1 3.4438782 3.4438775z" style="fill:#808080"/>
</svg>

<svg xmlns="http://www.w3.org/2000/svg" width="16" height="16" version="1.1">
 <g>
  <path style="fill:#808080" d="m 8,0.50000025 c -4.1365835,0 -7.5,3.36341655 -7.5,7.49999995 C 0.5,12.136584 3.8634165,15.5 8,15.5 c 4.136583,0 7.500001,-3.363417 7.500001,-7.4999998 C 15.500001,3.863417 12.136583,0.50000045 8,0.50000025 Z M 8,1.4375003 c 3.629921,2e-7 6.562501,2.9325792 6.562501,6.5624999 C 14.562501,11.629921 11.629921,14.5625 8,14.5625 4.3700791,14.5625 1.4375,11.629921 1.4375,8.0000002 1.4375,4.3700793 4.3700791,1.4375003 8,1.4375003 Z"/>
  <path style="fill:#808080" d="m 8,2.2578128 c -3.1657705,0 -5.7421876,2.576417 -5.7421876,5.7421874 0,3.1657708 2.5764171,5.7421878 5.7421876,5.7421878 3.165771,-1e-6 5.742188,-2.576418 5.742188,-5.7421878 C 13.742188,4.83423 11.165771,2.257813 8,2.2578128 Z m 0,0.9375 c 2.659108,2e-7 4.804688,2.1455797 4.804688,4.8046874 0,2.6591078 -2.14558,4.8046868 -4.804688,4.8046878 -2.6591079,0 -4.8046876,-2.14558 -4.8046876,-4.8046878 C 3.1953124,5.3408924 5.3408921,3.1953128 8,3.1953128 Z"/>
  <path style="fill:#808080" d="M 11.443723,8.0854643 A 3.4438774,3.4438774 0 0 1 7.9998448,11.529342 3.4438774,3.4438774 0 0 1 4.5559673,8.0854643 3.4438774,3.4438774 0 0 1 7.9998448,4.6415868 3.4438774,3.4438774 0 0 1 11.443723,8.0854643 Z"/>
 </g>
</svg>
